Obsidian/places/16s/input-keyboard-symbolic.svg

<svg height="16" viewBox="0 0 16 16" width="16" xmlns="http://www.w3.org/2000/svg"><path d="m2 3c-1.108 0-2 .892-2 2v6c0 1.108.892 2 2 2h12c1.108 0 2-.892 2-2v-6c0-1.108-.892-2-2-2zm1 3h1v1h-1zm2 0h1v1h-1zm2 0h1v1h-1zm2 0h1v1h-1zm2 0h2v4h-1v-3h-1zm-8 3h2v1h-2zm3 0h5v1h-5z" fill="#bebebe"/></svg>

<?xml version="1.0" encoding="UTF-8" standalone="no"?>
<svg
   xmlns:dc="http://purl.org/dc/elements/1.1/"
   xmlns:cc="http://creativecommons.org/ns#"
   xmlns:rdf="http://www.w3.org/1999/02/22-rdf-syntax-ns#"
   xmlns:svg="http://www.w3.org/2000/svg"
   xmlns="http://www.w3.org/2000/svg"
   xmlns:sodipodi="http://sodipodi.sourceforge.net/DTD/sodipodi-0.dtd"
   xmlns:inkscape="http://www.inkscape.org/namespaces/inkscape"
   width="16"
   viewBox="0 0 16 16"
   height="16"
   id="svg2"
   version="1.1"
   inkscape:version="0.48.4 r9939"
   sodipodi:docname="input-keyboard-symbolic.svg">
  <metadata
     id="metadata26">
    <rdf:RDF>
      <cc:Work
         rdf:about="">
        <dc:format>image/svg+xml</dc:format>
        <dc:type
           rdf:resource="http://purl.org/dc/dcmitype/StillImage" />
      </cc:Work>
    </rdf:RDF>
  </metadata>
  <defs
     id="defs24" />
  <sodipodi:namedview
     pagecolor="#ffffff"
     bordercolor="#666666"
     borderopacity="1"
     objecttolerance="10"
     gridtolerance="10"
     guidetolerance="10"
     inkscape:pageopacity="0"
     inkscape:pageshadow="2"
     inkscape:window-width="1920"
     inkscape:window-height="1023"
     id="namedview22"
     showgrid="true"
     inkscape:zoom="51.362483"
     inkscape:cx="8.2693882"
     inkscape:cy="7.2194822"
     inkscape:window-x="0"
     inkscape:window-y="28"
     inkscape:window-maximized="1"
     inkscape:current-layer="svg2">
    <inkscape:grid
       type="xygrid"
       id="grid3003"
       empspacing="5"
       visible="true"
       enabled="true"
       snapvisiblegridlinesonly="true" />
  </sodipodi:namedview>
  <path
     style="fill:#bebebe;fill-opacity:1;stroke:none"
     d="M 2 3 C 0.892 3 0 3.892 0 5 L 0 11 C 0 12.108 0.892 13 2 13 L 14 13 C 15.108 13 16 12.108 16 11 L 16 5 C 16 3.892 15.108 3 14 3 L 2 3 z M 3 6 L 4 6 L 4 7 L 3 7 L 3 6 z M 5 6 L 6 6 L 6 7 L 5 7 L 5 6 z M 7 6 L 8 6 L 8 7 L 7 7 L 7 6 z M 9 6 L 10 6 L 10 7 L 9 7 L 9 6 z M 11 6 L 13 6 L 13 10 L 12 10 L 12 7 L 11 7 L 11 6 z M 3 9 L 5 9 L 5 10 L 3 10 L 3 9 z M 6 9 L 11 9 L 11 10 L 6 10 L 6 9 z "
     id="rect3005" />
</svg>
